assets/icons/qvision/wifi_off.svg

<svg width="24" height="24" viewBox="0 0 24 24" fill="none" xmlns="http://www.w3.org/2000/svg">
<g clip-path="url(#clip0_147_6077)">
<path d="M22.99 8.99998C19.15 5.15998 13.8 3.75998 8.84 4.77998L11.36 7.29998C14.83 7.12998 18.35 8.34998 20.99 11L22.99 8.99998ZM18.99 13C17.7 11.71 16.15 10.87 14.5 10.44L18.03 13.97L18.99 13ZM2 3.04998L5.07 6.09998C3.6 6.81998 2.22 7.77998 1 8.99998L2.99 11C4.23 9.75998 5.66 8.83998 7.19 8.22998L9.43 10.47C7.81 10.89 6.27 11.73 5 13V13.01L6.99 15C8.35 13.64 10.13 12.96 11.91 12.94L18.98 20L20.25 18.74L3.29 1.78998L2 3.04998ZM9 17L12 20L15 17C13.35 15.34 10.66 15.34 9 17Z" fill="#323232"/>
</g>
<defs>
<clipPath id="clip0_147_6077">
<rect width="24" height="24" fill="white"/>
</clipPath>
</defs>
</svg>

<svg xmlns="http://www.w3.org/2000/svg" height="24" viewBox="0 0 24 24" width="24"><path d="M24 .01c0-.01 0-.01 0 0L0 0v24h24V.01zM0 0h24v24H0V0zm0 0h24v24H0V0z" fill="none"/><path d="M22.99 9C19.15 5.16 13.8 3.76 8.84 4.78l2.52 2.52c3.47-.17 6.99 1.05 9.63 3.7l2-2zm-4 4c-1.29-1.29-2.84-2.13-4.49-2.56l3.53 3.53.96-.97zM2 3.05L5.07 6.1C3.6 6.82 2.22 7.78 1 9l1.99 2c1.24-1.24 2.67-2.16 4.2-2.77l2.24 2.24C7.81 10.89 6.27 11.73 5 13v.01L6.99 15c1.36-1.36 3.14-2.04 4.92-2.06L18.98 20l1.27-1.26L3.29 1.79 2 3.05zM9 17l3 3 3-3c-1.65-1.66-4.34-1.66-6 0z"/></svg>
